src/images/community/share.svg

<svg fill="none" height="30" viewBox="0 0 30 30" width="30" xmlns="http://www.w3.org/2000/svg"><path d="m21.5626 18.7502c-.7018.0035-1.3938.1646-2.0249.4712-.6312.3067-1.1855.7512-1.622 1.3007l-6.8531-4.2844c.2497-.8061.2497-1.6689 0-2.475l6.8531-4.28438c.6956.86128 1.6736 1.44858 2.7607 1.65788s2.2132.027 3.1789-.5145c.9656-.5415 1.7084-1.4073 2.0968-2.44403s.3973-2.17746.0251-3.22013c-.3721-1.04268-1.1013-1.91998-2.0583-2.47651-.9571-.55653-2.0802-.75635-3.1705-.56409-1.0903.19227-2.0773.76423-2.7862 1.61455-.709.85032-1.0941 1.92413-1.0871 3.0312.0044.41923.0675.83578.1875 1.2375l-6.8531 4.28441c-.60506-.7617-1.43204-1.3162-2.36634-1.5869-.9343-.2706-1.92965-.2438-2.84807.0766s-1.71443.9185-2.27768 1.7116c-.56325.793-.86585 1.7416-.86585 2.7143s.3026 1.9213.86585 2.7143c.56325.7931 1.35926 1.3912 2.27768 1.7116s1.91377.3471 2.84807.0765 1.76128-.8251 2.36634-1.5868l6.8531 4.2844c-.12.4017-.1831.8183-.1875 1.2375 0 .9271.2749 1.8334.79 2.6042.515.7709 1.2471 1.3717 2.1037 1.7265.8565.3548 1.799.4476 2.7083.2667.9093-.1808 1.7445-.6273 2.4-1.2828.6556-.6556 1.102-1.4908 1.2829-2.4001s.0881-1.8518-.2667-2.7083c-.3548-.8566-.9556-1.5887-1.7265-2.1037-.7708-.5151-1.6771-.79-2.6042-.79zm0-15.00001c.5562 0 1.1.16495 1.5625.47399s.823.7483 1.0359 1.26221c.2129.51392.2686 1.07942.16 1.62499-.1085.54557-.3763 1.04671-.7697 1.44005-.3933.39333-.8945.6612-1.44.76972-.5456.10852-1.1111.05282-1.625-.16005s-.9532-.57335-1.2622-1.03587c-.3091-.46251-.474-1.00628-.474-1.56254 0-.74592.2963-1.46129.8237-1.98874.5275-.52744 1.2429-.82376 1.9888-.82376zm-15.00002 14.06251c-.55626 0-1.10003-.165-1.56254-.474s-.823-.7483-1.03587-1.2622-.26857-1.0794-.16005-1.625.37639-1.0467.76972-1.44c.39334-.3934.89448-.6612 1.44005-.7698.54557-.1085 1.11107-.0528 1.62499.1601s.95317.5733 1.26221 1.0358c.30904.4626.47399 1.0063.47399 1.5626 0 .7459-.29631 1.4613-.82376 1.9887-.52745.5275-1.24282.8238-1.98874.8238zm15.00002 8.4375c-.5563 0-1.1-.165-1.5626-.474-.4625-.309-.823-.7483-1.0358-1.2622-.2129-.5139-.2686-1.0794-.1601-1.625s.3764-1.0467.7697-1.44c.3934-.3934.8945-.6612 1.4401-.7698.5456-.1085 1.1111-.0528 1.625.1601s.9531.5733 1.2622 1.0359c.309.4625.474 1.0062.474 1.5625 0 .7459-.2963 1.4613-.8238 1.9887-.5274.5275-1.2428.8238-1.9887.8238z" fill="#000"/></svg>

<svg width="30" height="30" viewBox="0 0 30 30" fill="none" xmlns="http://www.w3.org/2000/svg">
<path d="M21.5626 18.7502C20.8608 18.7537 20.1688 18.9148 19.5377 19.2214C18.9065 19.5281 18.3522 19.9726 17.9157 20.5221L11.0626 16.2377C11.3123 15.4316 11.3123 14.5688 11.0626 13.7627L17.9157 9.47832C18.6113 10.3396 19.5893 10.9269 20.6764 11.1362C21.7635 11.3455 22.8896 11.1632 23.8553 10.6217C24.8209 10.0802 25.5637 9.2144 25.9521 8.17767C26.3405 7.14094 26.3494 6.00021 25.9772 4.95754C25.6051 3.91486 24.8759 3.03756 23.9189 2.48103C22.9618 1.9245 21.8387 1.72468 20.7484 1.91694C19.6581 2.10921 18.6711 2.68117 17.9622 3.53149C17.2532 4.38181 16.8681 5.45562 16.8751 6.56269C16.8795 6.98192 16.9426 7.39847 17.0626 7.80019L10.2095 12.0846C9.60444 11.3229 8.77746 10.7684 7.84316 10.4977C6.90886 10.2271 5.91351 10.2539 4.99509 10.5743C4.07667 10.8947 3.28066 11.4928 2.71741 12.2859C2.15416 13.0789 1.85156 14.0275 1.85156 15.0002C1.85156 15.9729 2.15416 16.9215 2.71741 17.7145C3.28066 18.5076 4.07667 19.1057 4.99509 19.4261C5.91351 19.7465 6.90886 19.7732 7.84316 19.5026C8.77746 19.232 9.60444 18.6775 10.2095 17.9158L17.0626 22.2002C16.9426 22.6019 16.8795 23.0185 16.8751 23.4377C16.8751 24.3648 17.15 25.2711 17.6651 26.0419C18.1801 26.8128 18.9122 27.4136 19.7688 27.7684C20.6253 28.1232 21.5678 28.216 22.4771 28.0351C23.3864 27.8543 24.2216 27.4078 24.8771 26.7523C25.5327 26.0967 25.9791 25.2615 26.16 24.3522C26.3409 23.4429 26.2481 22.5004 25.8933 21.6439C25.5385 20.7873 24.9377 20.0552 24.1668 19.5402C23.396 19.0251 22.4897 18.7502 21.5626 18.7502ZM21.5626 3.75019C22.1188 3.75019 22.6626 3.91514 23.1251 4.22418C23.5876 4.53322 23.9481 4.97248 24.161 5.48639C24.3739 6.00031 24.4296 6.56581 24.321 7.11138C24.2125 7.65695 23.9447 8.15809 23.5513 8.55143C23.158 8.94476 22.6568 9.21263 22.1113 9.32115C21.5657 9.42967 21.0002 9.37397 20.4863 9.1611C19.9724 8.94823 19.5331 8.58775 19.2241 8.12523C18.915 7.66272 18.7501 7.11895 18.7501 6.56269C18.7501 5.81677 19.0464 5.1014 19.5738 4.57395C20.1013 4.04651 20.8167 3.75019 21.5626 3.75019ZM6.56258 17.8127C6.00632 17.8127 5.46255 17.6477 5.00004 17.3387C4.53753 17.0297 4.17704 16.5904 3.96417 16.0765C3.7513 15.5626 3.6956 14.9971 3.80412 14.4515C3.91264 13.9059 4.18051 13.4048 4.57384 13.0115C4.96718 12.6181 5.46832 12.3503 6.01389 12.2417C6.55946 12.1332 7.12496 12.1889 7.63888 12.4018C8.1528 12.6147 8.59205 12.9751 8.90109 13.4376C9.21013 13.9002 9.37508 14.4439 9.37508 15.0002C9.37508 15.7461 9.07877 16.4615 8.55132 16.9889C8.02387 17.5164 7.3085 17.8127 6.56258 17.8127ZM21.5626 26.2502C21.0063 26.2502 20.4626 26.0852 20 25.7762C19.5375 25.4672 19.177 25.0279 18.9642 24.514C18.7513 24.0001 18.6956 23.4346 18.8041 22.889C18.9126 22.3434 19.1805 21.8423 19.5738 21.449C19.9672 21.0556 20.4683 20.7878 21.0139 20.6792C21.5595 20.5707 22.125 20.6264 22.6389 20.8393C23.1528 21.0522 23.592 21.4126 23.9011 21.8752C24.2101 22.3377 24.3751 22.8814 24.3751 23.4377C24.3751 24.1836 24.0788 24.899 23.5513 25.4264C23.0239 25.9539 22.3085 26.2502 21.5626 26.2502Z" fill="black"/>
</svg>
